PortableApps/LibreOfficePortable/App/libreoffice/help/media/icon-themes/res/savemodified_large.svg

<svg viewBox="0 0 24 24" xmlns="http://www.w3.org/2000/svg"><path d="m3 2c-.554 0-1 .446-1 1v18c0 .554.446 1 1 1h13.541016a4 4 0 0 1 -.541016-2 4 4 0 0 1 4-4 4 4 0 0 1 2 .541016v-13.541016c0-.554-.446-1-1-1z" fill="#8959ab"/><path d="m5 3c-.554 0-1 .446-1 1v6c0 .554.446 1 1 1h14c.554 0 1-.446 1-1v-6c0-.554-.446-1-1-1zm3 12c-.554 0-1 .446-1 1v4c0 .554.446 1 1 1h2v-5h2v5h4.130859a4 4 0 0 1 -.130859-1 4 4 0 0 1 2-3.458984v-.541016c0-.554-.446-1-1-1z" fill="#fff"/><circle cx="20" cy="20" fill="#d65532" r="3"/></svg>

<svg viewBox="0 0 24 24" xmlns="http://www.w3.org/2000/svg">
  <path
     d="M 3 2 C 2.446 2 2 2.446 2 3 L 2 21 C 2 21.554 2.446 22 3 22 L 16.541016 22 A 4 4 0 0 1 16 20 A 4 4 0 0 1 20 16 A 4 4 0 0 1 22 16.541016 L 22 3 C 22 2.446 21.554 2 21 2 L 3 2 z "
     style="fill:#8959ab" />
  <path
     style="fill:#ffffff"
     d="M 5 3 C 4.446 3 4 3.446 4 4 L 4 10 C 4 10.554 4.446 11 5 11 L 19 11 C 19.554 11 20 10.554 20 10 L 20 4 C 20 3.446 19.554 3 19 3 L 5 3 z M 8 15 C 7.446 15 7 15.446 7 16 L 7 20 C 7 20.554 7.446 21 8 21 L 10 21 L 10 16 L 12 16 L 12 21 L 16.130859 21 A 4 4 0 0 1 16 20 A 4 4 0 0 1 18 16.541016 L 18 16 C 18 15.446 17.554 15 17 15 L 8 15 z "
     />
  <circle
     style="fill:#d65532"
     cx="20"
     cy="20"
     r="3"
     />
</svg>
